images/logos/ayj.svg

<?xml version="1.0" encoding="UTF-8"?>
<!DOCTYPE svg  PUBLIC '-//W3C//DTD SVG 1.1//EN'  'http://www.w3.org/Graphics/SVG/1.1/DTD/svg11.dtd'>
<svg width="250pt" height="250pt" version="1.1" viewBox="0 0 250 250" xmlns="http://www.w3.org/2000/svg">
<g fill="#221f1f">
<path d="m216.54 14.87c1.08 1.84 0.65 4.03 0.58 6.04-0.66 8.7-2.57 17.41-6.3 25.33-0.25 0.11-0.75 0.35-1 0.46-1.19 4.92-4.15 9.1-7.08 13.13-8.44 11.4-20.41 19.83-33.29 25.54-17.55 7.83-36.05 13.19-54.44 18.59-3.58 1.02-5.61 4.48-8.69 6.36-9.77 6.56-21.79 8.37-33.3 9.05 8.03-11.07 20.55-17.59 33.01-22.43 15.36-5.89 31.27-10.16 46.97-14.99 20.26-6.55 38.38-19.71 50.23-37.47 5.78-9.18 10.85-18.98 13.31-29.61m-130.23 99.73c8.28-2.63 18.43-4.92 22.5-13.56-8.4 2.53-17.41 5.95-22.5 13.56z"/>
<path d="m94.91 43.08c24.96-15.69 56.94-19.38 84.86-9.99l0.51-1.09c-0.06 0.75-0.18 2.26-0.23 3.01-0.92 0.99-1.93 1.89-2.92 2.81-21.72-7.21-46.05-5.87-67 3.26-27.4 11.66-48.68 36.78-55.36 65.84-0.3 3.2-3.95 3.63-6.29 4.81 0.32-1.88 0.69-3.75 1.2-5.58 0.01-0.05 0.03-0.14 0.04-0.18 0.18-0.67 0.55-2.01 0.73-2.68 0.01-0.05 0.04-0.16 0.05-0.22 6.17-24.76 22.69-46.67 44.41-59.99z"/>
<path d="m213.67 52.22c2.08 1.78 4.21 3.52 5.95 5.64l0.12 0.15 0.14 0.13c4.05 3.85 7.59 8.22 10.76 12.81 0.03 0.04 0.08 0.12 0.11 0.16 0.43 0.69 1.3 2.06 1.73 2.75l0.11 0.17 0.12 0.15c19.27 28.54 21.54 67.3 6.65 98.24-11.12 23.64-31.76 42.63-56.34 51.52-9.6 3.72-19.84 5.16-29.96 6.64-8.49 0.91-16.84-1.1-25.17-2.43-33.35-6.45-62.72-31.1-74.17-63.14l-0.06-0.18-0.07-0.17c-1.41-2.97-2.32-6.13-3.15-9.29 1.88 0.38 3.89 0.5 5.58 1.48 1.62 3.27 2.45 6.86 3.96 10.18 6.81 15.62 17.79 29.42 31.6 39.41 16.17 11.99 36.28 18.58 56.42 18.41 21.56 0.16 43.08-7.39 59.84-20.95 17.25-13.63 29.43-33.45 33.96-54.95 4.16-20.04 1.96-41.46-6.78-60.02-5.41-11.79-13.34-22.35-22.94-31.06-2.35-1.64 0.67-4 1.59-5.65z"/>
<path d="m174.17 89.2c5.64-3.35 11.35-6.64 16.5-10.76-2.75 8.68-5.04 17.55-6.14 26.6-0.55 5.68-1.01 12.01 2.44 16.94 5.16 8.81 13.34 15.18 21.85 20.52-17.44-4.36-36-3.58-53.28 1.19-18.37 5.33-35.2 15.67-48.25 29.66-2.5 2.49-4.54 5.43-7.28 7.68 5.39-11.51 14.34-21.02 24.34-28.7 6.41-4.95 13.7-8.76 19.49-14.5 13.88-13.51 22.48-31.22 30.33-48.63z"/>
<path d="m47.51 117.83c4.84-2.5 9.84-4.65 14.79-6.93 0.08 3.21 0.39 6.43 0.15 9.63-10.79 5.4-23.01 10.63-28.78 22.04 9.02-1.4 18.57-0.98 26.99 2.82 11.04 4.7 19.18 14.67 23.47 25.68-2.19-2.54-4.1-5.32-6.51-7.67-7.69-7.36-17.85-11.97-28.4-13.23-5.04-0.18-10.09-0.42-15.11 0.21-10.95 1.4-21.88 2.99-32.82 4.46 3.09-4.35 7.05-7.98 10.81-11.74 10.62-9.91 22.46-18.64 35.41-25.27z"/>
</g>
<g fill="#0e71ba">
<path d="m194.32 25.5c1.02-1.51 1.78-3.33 3.52-4.18-0.66 5.64-0.56 11.56-2.64 16.91l-0.36 0.58c-0.18 0.54-0.53 1.61-0.71 2.15-4.96 14.02-16.26 25.04-29.16 32.01-15.55 8.78-33.32 11.97-50 17.85-13.98 4.91-28.79 10.01-39.21 21.04-4.67 4.74-7.1 10.99-9.3 17.13-0.93-14.57 3.21-29.73 12.23-41.31 6.09-7.65 14.51-13.33 23.82-16.32 20.1-6.54 41-10.78 60.35-19.51 8.75-3.97 17.13-9.12 23.72-16.18 2.77-3.24 5.55-6.5 7.74-10.17z"/>
<path d="m145.17 159.79c2.53-0.01 5.06 0 7.59 0.05 2.2 12 3.89 24.11 6.05 36.12 1.47 1 2.78 2.24 2.48 4.2-4.27 0.39-8.56 0.28-12.84 0.24-0.57-2.12 0.66-3.65 2.53-4.42-0.32-2.07-0.63-4.15-0.94-6.22-2.08-0.02-4.16-0.02-6.23-0.02-0.44 2.12-0.8 4.25-1.15 6.39 2.1 0.48 3.09 2.03 2.72 4.18-2.87 0.13-5.74 0.16-8.6 0.22-0.2-1.08-0.39-2.17-0.56-3.25 0.94-0.38 1.88-0.75 2.83-1.12 1.72-12.17 3.95-24.27 6.12-36.37m-0.91 26.4c1.78-0.03 3.55-0.06 5.33-0.09-0.96-5.7-1.33-11.49-2.42-17.17-1.36 5.67-1.95 11.51-2.91 17.26z"/>
<path d="m158.68 159.84c4.2-0.13 8.4-0.09 12.61 0.03 0.03 1.79-0.91 3.24-2.02 4.54 1.09 3.45 2.19 6.89 3.33 10.32 1.48-3.5 2.54-7.15 3.88-10.71-2.47-0.26-3.19-1.92-2.8-4.16 2.87-0.14 5.75-0.14 8.62 0.03 0.26 2.92-2.46 4.5-3.15 7.09-1.31 4.37-3.36 8.5-4.36 12.95-0.53 5.43 0.03 10.9-0.34 16.34 0.68 0.21 2.05 0.63 2.73 0.84-0.11 0.74-0.33 2.24-0.44 2.98-3.87 0.63-7.85 0.34-11.75 0.25-0.33-0.59-0.99-1.78-1.32-2.37 1.03-0.65 2.06-1.28 3.1-1.91-0.4-5.69 0.37-11.43-0.43-17.08-1.57-5.12-3.46-10.15-5.28-15.19-0.59-0.16-1.78-0.49-2.38-0.65v-3.3z"/>
<path d="m185.92 159.8c3.79-0.07 7.58 0.01 11.37-0.12 1.34 2.07-0.28 3.69-1.65 5.18 0.12 8.71 0.07 17.42 0.07 26.12-0.14 2.67 0.01 5.73-1.87 7.86-2.55 2.45-6.43 2.17-9.66 1.69-1.94-0.26-3.54-1.76-3.93-3.67-0.88-3.8-0.44-7.75-0.44-11.61 1.82-0.02 3.64-0.03 5.46-0.01 0.17 3.21 0.02 6.43 0.1 9.65-0.35 1.62 1.13 2.16 2.46 2.04 0.14-10.91-0.08-21.83 0.11-32.74-0.5-0.3-1.52-0.91-2.03-1.22 0-0.79 0.01-2.38 0.01-3.17z"/>
</g>
<g fill="#fff">
<path d="m110.13 41.08c20.95-9.13 45.28-10.47 67-3.26 0.99-0.92 2-1.82 2.92-2.81 0.35-0.35 1.07-1.05 1.42-1.41 1.69 0.73 3.4 1.42 5.11 2.07-6.59 7.06-14.97 12.21-23.72 16.18-19.35 8.73-40.25 12.97-60.35 19.51-9.31 2.99-17.73 8.67-23.82 16.32-9.02 11.58-13.16 26.74-12.23 41.31 2.2-6.14 4.63-12.39 9.3-17.13 10.42-11.03 25.23-16.13 39.21-21.04 16.68-5.88 34.45-9.07 50-17.85 12.9-6.97 24.2-17.99 29.16-32.01 0.44-0.24 1.33-0.74 1.77-0.98 2.5 1.39 4.81 3.12 7.33 4.5-11.85 17.76-29.97 30.92-50.23 37.47-15.7 4.83-31.61 9.1-46.97 14.99-12.46 4.84-24.98 11.36-33.01 22.43 11.51-0.68 23.53-2.49 33.3-9.05 3.08-1.88 5.11-5.34 8.69-6.36 18.39-5.4 36.89-10.76 54.44-18.59 12.88-5.71 24.85-14.14 33.29-25.54 2.93-4.03 5.89-8.21 7.08-13.13 0.25-0.11 0.75-0.35 1-0.46-0.31 1.02-0.74 2-1.19 2.96 1.38 0.96 2.72 1.99 4.04 3.02-0.92 1.65-3.94 4.01-1.59 5.65 9.6 8.71 17.53 19.27 22.94 31.06 8.74 18.56 10.94 39.98 6.78 60.02-4.53 21.5-16.71 41.32-33.96 54.95-16.76 13.56-38.28 21.11-59.84 20.95-20.14 0.17-40.25-6.42-56.42-18.41-13.81-9.99-24.79-23.79-31.6-39.41-1.51-3.32-2.34-6.91-3.96-10.18-1.69-0.98-3.7-1.1-5.58-1.48-0.41-1.74-0.81-3.47-1.22-5.2 10.55 1.26 20.71 5.87 28.4 13.23 2.41 2.35 4.32 5.13 6.51 7.67-4.29-11.01-12.43-20.98-23.47-25.68-8.42-3.8-17.97-4.22-26.99-2.82 5.77-11.41 17.99-16.64 28.78-22.04 0.24-3.2-0.07-6.42-0.15-9.63-4.95 2.28-9.95 4.43-14.79 6.93 0.41-2.02 0.7-4.06 0.97-6.1 2.34-1.18 5.99-1.61 6.29-4.81 6.68-29.06 27.96-54.18 55.36-65.84m64.04 48.12c-7.85 17.41-16.45 35.12-30.33 48.63-5.79 5.74-13.08 9.55-19.49 14.5-10 7.68-18.95 17.19-24.34 28.7 2.74-2.25 4.78-5.19 7.28-7.68 13.05-13.99 29.88-24.33 48.25-29.66 17.28-4.77 35.84-5.55 53.28-1.19-8.51-5.34-16.69-11.71-21.85-20.52-3.45-4.93-2.99-11.26-2.44-16.94 1.1-9.05 3.39-17.92 6.14-26.6-5.15 4.12-10.86 7.41-16.5 10.76m-29 70.59c-2.17 12.1-4.4 24.2-6.12 36.37-0.95 0.37-1.89 0.74-2.83 1.12 0.17 1.08 0.36 2.17 0.56 3.25 2.86-0.06 5.73-0.09 8.6-0.22 0.37-2.15-0.62-3.7-2.72-4.18 0.35-2.14 0.71-4.27 1.15-6.39 2.07 0 4.15 0 6.23 0.02 0.31 2.07 0.62 4.15 0.94 6.22-1.87 0.77-3.1 2.3-2.53 4.42 4.28 0.04 8.57 0.15 12.84-0.24 0.3-1.96-1.01-3.2-2.48-4.2-2.16-12.01-3.85-24.12-6.05-36.12-2.53-0.05-5.06-0.06-7.59-0.05m13.51 0.05v3.3c0.6 0.16 1.79 0.49 2.38 0.65 1.82 5.04 3.71 10.07 5.28 15.19 0.8 5.65 0.03 11.39 0.43 17.08-1.04 0.63-2.07 1.26-3.1 1.91 0.33 0.59 0.99 1.78 1.32 2.37 3.9 0.09 7.88 0.38 11.75-0.25 0.11-0.74 0.33-2.24 0.44-2.98-0.68-0.21-2.05-0.63-2.73-0.84 0.37-5.44-0.19-10.91 0.34-16.34 1-4.45 3.05-8.58 4.36-12.95 0.69-2.59 3.41-4.17 3.15-7.09-2.87-0.17-5.75-0.17-8.62-0.03-0.39 2.24 0.33 3.9 2.8 4.16-1.34 3.56-2.4 7.21-3.88 10.71-1.14-3.43-2.24-6.87-3.33-10.32 1.11-1.3 2.05-2.75 2.02-4.54-4.21-0.12-8.41-0.16-12.61-0.03m27.24-0.04c0 0.79-0.01 2.38-0.01 3.17 0.51 0.31 1.53 0.92 2.03 1.22-0.19 10.91 0.03 21.83-0.11 32.74-1.33 0.12-2.81-0.42-2.46-2.04-0.08-3.22 0.07-6.44-0.1-9.65-1.82-0.02-3.64-0.01-5.46 0.01 0 3.86-0.44 7.81 0.44 11.61 0.39 1.91 1.99 3.41 3.93 3.67 3.23 0.48 7.11 0.76 9.66-1.69 1.88-2.13 1.73-5.19 1.87-7.86 0-8.7 0.05-17.41-0.07-26.12 1.37-1.49 2.99-3.11 1.65-5.18-3.79 0.13-7.58 0.05-11.37 0.12z"/>
<path d="m219.62 57.86c0.06 0.07 0.19 0.21 0.26 0.28l-0.14-0.13-0.12-0.15z"/>
<path d="m230.64 70.95c0.03 0.04 0.08 0.12 0.11 0.16-0.03-0.04-0.08-0.12-0.11-0.16z"/>
<path d="m232.48 73.86c0.06 0.08 0.17 0.24 0.23 0.32l-0.12-0.15-0.11-0.17z"/>
<path d="m50.45 103.29c0.01-0.05 0.04-0.16 0.05-0.22-0.01 0.06-0.04 0.17-0.05 0.22z"/>
<path d="m86.31 114.6c5.09-7.61 14.1-11.03 22.5-13.56-4.07 8.64-14.22 10.93-22.5 13.56z"/>
<path d="m49.68 106.15c0.01-0.05 0.03-0.14 0.04-0.18-0.01 0.04-0.03 0.13-0.04 0.18z"/>
<path d="m53.59 164.66l0.07 0.17 0.06 0.18c-0.03-0.09-0.1-0.26-0.13-0.35z"/>
<path d="m144.26 186.19c0.96-5.75 1.55-11.59 2.91-17.26 1.09 5.68 1.46 11.47 2.42 17.17-1.78 0.03-3.55 0.06-5.33 0.09z"/>
</g>
</svg>

<?xml version="1.0" encoding="UTF-8" ?>
<!DOCTYPE svg PUBLIC "-//W3C//DTD SVG 1.1//EN" "http://www.w3.org/Graphics/SVG/1.1/DTD/svg11.dtd">
<svg width="250pt" height="250pt" viewBox="0 0 250 250" version="1.1" xmlns="http://www.w3.org/2000/svg">
<g id="#221f1fff">
<path fill="#221f1f" opacity="1.00" d=" M 216.54 14.87 C 217.62 16.71 217.19 18.90 217.12 20.91 C 216.46 29.61 214.55 38.32 210.82 46.24 C 210.57 46.35 210.07 46.59 209.82 46.70 C 208.63 51.62 205.67 55.80 202.74 59.83 C 194.30 71.23 182.33 79.66 169.45 85.37 C 151.90 93.20 133.40 98.56 115.01 103.96 C 111.43 104.98 109.40 108.44 106.32 110.32 C 96.55 116.88 84.53 118.69 73.02 119.37 C 81.05 108.30 93.57 101.78 106.03 96.94 C 121.39 91.05 137.30 86.78 153.00 81.95 C 173.26 75.40 191.38 62.24 203.23 44.48 C 209.01 35.30 214.08 25.50 216.54 14.87 M 86.31 114.60 C 94.59 111.97 104.74 109.68 108.81 101.04 C 100.41 103.57 91.40 106.99 86.31 114.60 Z" />
<path fill="#221f1f" opacity="1.00" d=" M 94.91 43.08 C 119.87 27.39 151.85 23.70 179.77 33.09 L 180.28 32.00 C 180.22 32.75 180.10 34.26 180.05 35.01 C 179.13 36.00 178.12 36.90 177.13 37.82 C 155.41 30.61 131.08 31.95 110.13 41.08 C 82.73 52.74 61.45 77.86 54.77 106.92 C 54.47 110.12 50.82 110.55 48.48 111.73 C 48.80 109.85 49.17 107.98 49.68 106.15 C 49.69 106.10 49.71 106.01 49.72 105.97 C 49.90 105.30 50.27 103.96 50.45 103.29 C 50.46 103.24 50.49 103.13 50.50 103.07 C 56.67 78.31 73.19 56.40 94.91 43.08 Z" />
<path fill="#221f1f" opacity="1.00" d=" M 213.67 52.22 C 215.75 54.00 217.88 55.74 219.62 57.86 L 219.74 58.01 L 219.88 58.14 C 223.93 61.99 227.47 66.36 230.64 70.95 C 230.67 70.99 230.72 71.07 230.75 71.11 C 231.18 71.80 232.05 73.17 232.48 73.86 L 232.59 74.03 L 232.71 74.18 C 251.98 102.72 254.25 141.48 239.36 172.42 C 228.24 196.06 207.60 215.05 183.02 223.94 C 173.42 227.66 163.18 229.10 153.06 230.58 C 144.57 231.49 136.22 229.48 127.89 228.15 C 94.54 221.70 65.17 197.05 53.72 165.01 L 53.66 164.83 L 53.59 164.66 C 52.18 161.69 51.27 158.53 50.44 155.37 C 52.32 155.75 54.33 155.87 56.02 156.85 C 57.64 160.12 58.47 163.71 59.98 167.03 C 66.79 182.65 77.77 196.45 91.58 206.44 C 107.75 218.43 127.86 225.02 148.00 224.85 C 169.56 225.01 191.08 217.46 207.84 203.90 C 225.09 190.27 237.27 170.45 241.80 148.95 C 245.96 128.91 243.76 107.49 235.02 88.93 C 229.61 77.14 221.68 66.58 212.08 57.87 C 209.73 56.23 212.75 53.87 213.67 52.22 Z" />
<path fill="#221f1f" opacity="1.00" d=" M 174.17 89.20 C 179.81 85.85 185.52 82.56 190.67 78.44 C 187.92 87.12 185.63 95.99 184.53 105.04 C 183.98 110.72 183.52 117.05 186.97 121.98 C 192.13 130.79 200.31 137.16 208.82 142.50 C 191.38 138.14 172.82 138.92 155.54 143.69 C 137.17 149.02 120.34 159.36 107.29 173.35 C 104.79 175.84 102.75 178.78 100.01 181.03 C 105.40 169.52 114.35 160.01 124.35 152.33 C 130.76 147.38 138.05 143.57 143.84 137.83 C 157.72 124.32 166.32 106.61 174.17 89.20 Z" />
<path fill="#221f1f" opacity="1.00" d=" M 47.51 117.83 C 52.35 115.33 57.35 113.18 62.30 110.90 C 62.38 114.11 62.69 117.33 62.45 120.53 C 51.66 125.93 39.44 131.16 33.67 142.57 C 42.69 141.17 52.24 141.59 60.66 145.39 C 71.70 150.09 79.84 160.06 84.13 171.07 C 81.94 168.53 80.03 165.75 77.62 163.40 C 69.93 156.04 59.77 151.43 49.22 150.17 C 44.18 149.99 39.13 149.75 34.11 150.38 C 23.16 151.78 12.23 153.37 1.29 154.84 C 4.38 150.49 8.34 146.86 12.10 143.10 C 22.72 133.19 34.56 124.46 47.51 117.83 Z" />
</g>
<g id="#0e71baff">
<path fill="#0e71ba" opacity="1.00" d=" M 194.32 25.50 C 195.34 23.99 196.10 22.17 197.84 21.32 C 197.18 26.96 197.28 32.88 195.20 38.23 L 194.84 38.81 C 194.66 39.35 194.31 40.42 194.13 40.96 C 189.17 54.98 177.87 66.00 164.97 72.97 C 149.42 81.75 131.65 84.94 114.97 90.82 C 100.99 95.73 86.18 100.83 75.76 111.86 C 71.09 116.60 68.66 122.85 66.46 128.99 C 65.53 114.42 69.67 99.26 78.69 87.68 C 84.78 80.03 93.20 74.35 102.51 71.36 C 122.61 64.82 143.51 60.58 162.86 51.85 C 171.61 47.88 179.99 42.73 186.58 35.67 C 189.35 32.43 192.13 29.17 194.32 25.50 Z" />
<path fill="#0e71ba" opacity="1.00" d=" M 145.17 159.79 C 147.70 159.78 150.23 159.79 152.76 159.84 C 154.96 171.84 156.65 183.95 158.81 195.96 C 160.28 196.96 161.59 198.20 161.29 200.16 C 157.02 200.55 152.73 200.44 148.45 200.40 C 147.88 198.28 149.11 196.75 150.98 195.98 C 150.66 193.91 150.35 191.83 150.04 189.76 C 147.96 189.74 145.88 189.74 143.81 189.74 C 143.37 191.86 143.01 193.99 142.66 196.13 C 144.76 196.61 145.75 198.16 145.38 200.31 C 142.51 200.44 139.64 200.47 136.78 200.53 C 136.58 199.45 136.39 198.36 136.22 197.28 C 137.16 196.90 138.10 196.53 139.05 196.16 C 140.77 183.99 143.00 171.89 145.17 159.79 M 144.26 186.19 C 146.04 186.16 147.81 186.13 149.59 186.10 C 148.63 180.40 148.26 174.61 147.17 168.93 C 145.81 174.60 145.22 180.44 144.26 186.19 Z" />
<path fill="#0e71ba" opacity="1.00" d=" M 158.68 159.84 C 162.88 159.71 167.08 159.75 171.29 159.87 C 171.32 161.66 170.38 163.11 169.27 164.41 C 170.36 167.86 171.46 171.30 172.60 174.73 C 174.08 171.23 175.14 167.58 176.48 164.02 C 174.01 163.76 173.29 162.10 173.68 159.86 C 176.55 159.72 179.43 159.72 182.30 159.89 C 182.56 162.81 179.84 164.39 179.15 166.98 C 177.84 171.35 175.79 175.48 174.79 179.93 C 174.26 185.36 174.82 190.83 174.45 196.27 C 175.13 196.48 176.50 196.90 177.18 197.11 C 177.07 197.85 176.85 199.35 176.74 200.09 C 172.87 200.72 168.89 200.43 164.99 200.34 C 164.66 199.75 164.00 198.56 163.67 197.97 C 164.70 197.32 165.73 196.69 166.77 196.06 C 166.37 190.37 167.14 184.63 166.34 178.98 C 164.77 173.86 162.88 168.83 161.06 163.79 C 160.47 163.63 159.28 163.30 158.68 163.14 C 158.68 162.04 158.68 160.93 158.68 159.84 Z" />
<path fill="#0e71ba" opacity="1.00" d=" M 185.92 159.80 C 189.71 159.73 193.50 159.81 197.29 159.68 C 198.63 161.75 197.01 163.37 195.64 164.86 C 195.76 173.57 195.71 182.28 195.71 190.98 C 195.57 193.65 195.72 196.71 193.84 198.84 C 191.29 201.29 187.41 201.01 184.18 200.53 C 182.24 200.27 180.64 198.77 180.25 196.86 C 179.37 193.06 179.81 189.11 179.81 185.25 C 181.63 185.23 183.45 185.22 185.27 185.24 C 185.44 188.45 185.29 191.67 185.37 194.89 C 185.02 196.51 186.50 197.05 187.83 196.93 C 187.97 186.02 187.75 175.10 187.94 164.19 C 187.44 163.89 186.42 163.28 185.91 162.97 C 185.91 162.18 185.92 160.59 185.92 159.80 Z" />
</g>
<g id="#ffffffff">
<path fill="#ffffff" opacity="1.00" d=" M 110.13 41.08 C 131.08 31.95 155.41 30.61 177.13 37.82 C 178.12 36.90 179.13 36.00 180.05 35.01 C 180.40 34.66 181.12 33.96 181.47 33.60 C 183.16 34.33 184.87 35.02 186.58 35.67 C 179.99 42.73 171.61 47.88 162.86 51.85 C 143.51 60.58 122.61 64.82 102.51 71.36 C 93.20 74.35 84.78 80.03 78.69 87.68 C 69.67 99.26 65.53 114.42 66.46 128.99 C 68.66 122.85 71.09 116.60 75.76 111.86 C 86.18 100.83 100.99 95.73 114.97 90.82 C 131.65 84.94 149.42 81.75 164.97 72.97 C 177.87 66.00 189.17 54.98 194.13 40.96 C 194.57 40.72 195.46 40.22 195.90 39.98 C 198.40 41.37 200.71 43.10 203.23 44.48 C 191.38 62.24 173.26 75.40 153.00 81.95 C 137.30 86.78 121.39 91.05 106.03 96.94 C 93.57 101.78 81.05 108.30 73.02 119.37 C 84.53 118.69 96.55 116.88 106.32 110.32 C 109.40 108.44 111.43 104.98 115.01 103.96 C 133.40 98.56 151.90 93.20 169.45 85.37 C 182.33 79.66 194.30 71.23 202.74 59.83 C 205.67 55.80 208.63 51.62 209.82 46.70 C 210.07 46.59 210.57 46.35 210.82 46.24 C 210.51 47.26 210.08 48.24 209.63 49.20 C 211.01 50.16 212.35 51.19 213.67 52.22 C 212.75 53.87 209.73 56.23 212.08 57.87 C 221.68 66.58 229.61 77.14 235.02 88.93 C 243.76 107.49 245.96 128.91 241.80 148.95 C 237.27 170.45 225.09 190.27 207.84 203.90 C 191.08 217.46 169.56 225.01 148.00 224.85 C 127.86 225.02 107.75 218.43 91.58 206.44 C 77.77 196.45 66.79 182.65 59.98 167.03 C 58.47 163.71 57.64 160.12 56.02 156.85 C 54.33 155.87 52.32 155.75 50.44 155.37 C 50.03 153.63 49.63 151.90 49.22 150.17 C 59.77 151.43 69.93 156.04 77.62 163.40 C 80.03 165.75 81.94 168.53 84.13 171.07 C 79.84 160.06 71.70 150.09 60.66 145.39 C 52.24 141.59 42.69 141.17 33.67 142.57 C 39.44 131.16 51.66 125.93 62.45 120.53 C 62.69 117.33 62.38 114.11 62.30 110.90 C 57.35 113.18 52.35 115.33 47.51 117.83 C 47.92 115.81 48.21 113.77 48.48 111.73 C 50.82 110.55 54.47 110.12 54.77 106.92 C 61.45 77.86 82.73 52.74 110.13 41.08 M 174.17 89.20 C 166.32 106.61 157.72 124.32 143.84 137.83 C 138.05 143.57 130.76 147.38 124.35 152.33 C 114.35 160.01 105.40 169.52 100.01 181.03 C 102.75 178.78 104.79 175.84 107.29 173.35 C 120.34 159.36 137.17 149.02 155.54 143.69 C 172.82 138.92 191.38 138.14 208.82 142.50 C 200.31 137.16 192.13 130.79 186.97 121.98 C 183.52 117.05 183.98 110.72 184.53 105.04 C 185.63 95.99 187.92 87.12 190.67 78.44 C 185.52 82.56 179.81 85.85 174.17 89.20 M 145.17 159.79 C 143.00 171.89 140.77 183.99 139.05 196.16 C 138.10 196.53 137.16 196.90 136.22 197.28 C 136.39 198.36 136.58 199.45 136.78 200.53 C 139.64 200.47 142.51 200.44 145.38 200.31 C 145.75 198.16 144.76 196.61 142.66 196.13 C 143.01 193.99 143.37 191.86 143.81 189.74 C 145.88 189.74 147.96 189.74 150.04 189.76 C 150.35 191.83 150.66 193.91 150.98 195.98 C 149.11 196.75 147.88 198.28 148.45 200.40 C 152.73 200.44 157.02 200.55 161.29 200.16 C 161.59 198.20 160.28 196.96 158.81 195.96 C 156.65 183.95 154.96 171.84 152.76 159.84 C 150.23 159.79 147.70 159.78 145.17 159.79 M 158.68 159.84 C 158.68 160.93 158.68 162.04 158.68 163.14 C 159.28 163.30 160.47 163.63 161.06 163.79 C 162.88 168.83 164.77 173.86 166.34 178.98 C 167.14 184.63 166.37 190.37 166.77 196.06 C 165.73 196.69 164.70 197.32 163.67 197.97 C 164.00 198.56 164.66 199.75 164.99 200.34 C 168.89 200.43 172.87 200.72 176.74 200.09 C 176.85 199.35 177.07 197.85 177.18 197.11 C 176.50 196.90 175.13 196.48 174.45 196.27 C 174.82 190.83 174.26 185.36 174.79 179.93 C 175.79 175.48 177.84 171.35 179.15 166.98 C 179.84 164.39 182.56 162.81 182.30 159.89 C 179.43 159.72 176.55 159.72 173.68 159.86 C 173.29 162.10 174.01 163.76 176.48 164.02 C 175.14 167.58 174.08 171.23 172.60 174.73 C 171.46 171.30 170.36 167.86 169.27 164.41 C 170.38 163.11 171.32 161.66 171.29 159.87 C 167.08 159.75 162.88 159.71 158.68 159.84 M 185.92 159.80 C 185.92 160.59 185.91 162.18 185.91 162.97 C 186.42 163.28 187.44 163.89 187.94 164.19 C 187.75 175.10 187.97 186.02 187.83 196.93 C 186.50 197.05 185.02 196.51 185.37 194.89 C 185.29 191.67 185.44 188.45 185.27 185.24 C 183.45 185.22 181.63 185.23 179.81 185.25 C 179.81 189.11 179.37 193.06 180.25 196.86 C 180.64 198.77 182.24 200.27 184.18 200.53 C 187.41 201.01 191.29 201.29 193.84 198.84 C 195.72 196.71 195.57 193.65 195.71 190.98 C 195.71 182.28 195.76 173.57 195.64 164.86 C 197.01 163.37 198.63 161.75 197.29 159.68 C 193.50 159.81 189.71 159.73 185.92 159.80 Z" />
<path fill="#ffffff" opacity="1.00" d=" M 219.62 57.86 C 219.68 57.93 219.81 58.07 219.88 58.14 L 219.74 58.01 L 219.62 57.86 Z" />
<path fill="#ffffff" opacity="1.00" d=" M 230.64 70.95 C 230.67 70.99 230.72 71.07 230.75 71.11 C 230.72 71.07 230.67 70.99 230.64 70.95 Z" />
<path fill="#ffffff" opacity="1.00" d=" M 232.48 73.86 C 232.54 73.94 232.65 74.10 232.71 74.18 L 232.59 74.03 L 232.48 73.86 Z" />
<path fill="#ffffff" opacity="1.00" d=" M 50.45 103.29 C 50.46 103.24 50.49 103.13 50.50 103.07 C 50.49 103.13 50.46 103.24 50.45 103.29 Z" />
<path fill="#ffffff" opacity="1.00" d=" M 86.31 114.60 C 91.40 106.99 100.41 103.57 108.81 101.04 C 104.74 109.68 94.59 111.97 86.31 114.60 Z" />
<path fill="#ffffff" opacity="1.00" d=" M 49.68 106.15 C 49.69 106.10 49.71 106.01 49.72 105.97 C 49.71 106.01 49.69 106.10 49.68 106.15 Z" />
<path fill="#ffffff" opacity="1.00" d=" M 53.59 164.66 L 53.66 164.83 L 53.72 165.01 C 53.69 164.92 53.62 164.75 53.59 164.66 Z" />
<path fill="#ffffff" opacity="1.00" d=" M 144.26 186.19 C 145.22 180.44 145.81 174.60 147.17 168.93 C 148.26 174.61 148.63 180.40 149.59 186.10 C 147.81 186.13 146.04 186.16 144.26 186.19 Z" />
</g>
</svg>
